resources/icons/puppet.svg

<?xml version="1.0" encoding="UTF-8" standalone="no"?>
<svg
   xmlns:dc="http://purl.org/dc/elements/1.1/"
   xmlns:cc="http://creativecommons.org/ns#"
   xmlns:rdf="http://www.w3.org/1999/02/22-rdf-syntax-ns#"
   xmlns:svg="http://www.w3.org/2000/svg"
   xmlns="http://www.w3.org/2000/svg"
   xmlns:sodipodi="http://sodipodi.sourceforge.net/DTD/sodipodi-0.dtd"
   xmlns:inkscape="http://www.inkscape.org/namespaces/inkscape"
   inkscape:version="1.0 (4035a4fb49, 2020-05-01)"
   sodipodi:docname="puppet.svg"
   id="svg4"
   version="1.1"
   width="16"
   viewBox="0 0 16 16"
   height="16">
  <metadata
     id="metadata10">
    <rdf:RDF>
      <cc:Work
         rdf:about="">
        <dc:format>image/svg+xml</dc:format>
        <dc:type
           rdf:resource="http://purl.org/dc/dcmitype/StillImage" />
      </cc:Work>
    </rdf:RDF>
  </metadata>
  <defs
     id="defs8" />
  <sodipodi:namedview
     inkscape:current-layer="svg4"
     inkscape:cy="13.544688"
     inkscape:cx="1.9467345"
     inkscape:zoom="20.523956"
     showgrid="false"
     id="namedview6"
     inkscape:window-height="480"
     inkscape:window-width="640"
     inkscape:pageshadow="2"
     inkscape:pageopacity="0"
     guidetolerance="10"
     gridtolerance="10"
     objecttolerance="10"
     borderopacity="1"
     bordercolor="#666666"
     pagecolor="#ffffff" />
  <path
     style="stroke-width:0.395232"
     id="path2"
     d="M 3.1763685,1.1229761 V 5.2135755 H 6.5003556 L 8.461362,7.0206103 V 9.1048498 L 6.5003556,10.911885 H 3.1941958 v 4.090599 H 7.6332014 V 11.842197 L 9.5147953,10.10803 H 12.900368 V 6.0174304 H 9.5147953 L 7.6153741,4.2670702 V 1.1229761 Z M 4.6211928,3.8822994 H 6.1713603 V 2.4538667 H 4.6211928 Z m 0.017018,9.7889086 H 6.1887825 V 12.24239 H 4.6382098 Z"
     fill-rule="evenodd"
     fill="#ffae1a" />
</svg>

<svg xmlns="http://www.w3.org/2000/svg" width="16" viewBox="0 0 16 16" height="16"><path d="M3.176 1.123v4.09H6.5l1.961 1.808v2.084l-1.96 1.807H3.193v4.09h4.44v-3.16l1.88-1.734H12.9v-4.09H9.515l-1.9-1.75V1.122zm1.445 2.76h1.55v-1.43h-1.55zm.017 9.788h1.55v-1.429h-1.55z" fill-rule="evenodd" fill="#ffae1a" stroke-width=".395"/></svg>
